dist/img/sprites/icon_telegram.svg

<svg width="38" height="38" viewBox="0 0 38 38" fill="none" xmlns="http://www.w3.org/2000/svg">
<path d="M19 0.666504C8.87999 0.666504 0.666656 8.87984 0.666656 18.9998C0.666656 29.1198 8.87999 37.3332 19 37.3332C29.12 37.3332 37.3333 29.1198 37.3333 18.9998C37.3333 8.87984 29.12 0.666504 19 0.666504ZM27.5067 13.1332C27.2317 16.0298 26.04 23.0698 25.435 26.3148C25.1783 27.6898 24.665 28.1482 24.1883 28.2032C23.125 28.2948 22.3183 27.5065 21.2917 26.8282C19.6783 25.7648 18.7617 25.1048 17.2033 24.0782C15.3883 22.8865 16.5617 22.2265 17.6067 21.1632C17.8817 20.8882 22.575 16.6165 22.6667 16.2315C22.6794 16.1732 22.6777 16.1127 22.6617 16.0551C22.6457 15.9976 22.616 15.9449 22.575 15.9015C22.465 15.8098 22.3183 15.8465 22.19 15.8648C22.025 15.9015 19.4583 17.6065 14.4533 20.9798C13.72 21.4748 13.06 21.7315 12.4733 21.7132C11.8133 21.6948 10.5667 21.3465 9.63166 21.0348C8.47666 20.6682 7.57832 20.4665 7.65166 19.8248C7.68832 19.4948 8.14666 19.1648 9.00832 18.8165C14.3617 16.4882 17.9183 14.9482 19.6967 14.2148C24.7933 12.0882 25.8383 11.7215 26.535 11.7215C26.6817 11.7215 27.03 11.7582 27.25 11.9415C27.4333 12.0882 27.4883 12.2898 27.5067 12.4365C27.4883 12.5465 27.525 12.8765 27.5067 13.1332Z" fill="white"/>
</svg>

<svg width="38" height="38" viewBox="0 0 38 38" fill="none" xmlns="http://www.w3.org/2000/svg"><path d="M19 .667C8.88.667.667 8.88.667 19S8.88 37.333 19 37.333 37.333 29.12 37.333 19 29.12.667 19 .667zm8.507 12.466c-.275 2.897-1.467 9.937-2.072 13.182-.257 1.375-.77 1.833-1.247 1.888-1.063.092-1.87-.697-2.896-1.375-1.614-1.063-2.53-1.723-4.089-2.75-1.815-1.191-.641-1.851.404-2.915.275-.275 4.968-4.547 5.06-4.931a.367.367 0 00-.092-.33c-.11-.092-.257-.055-.385-.037-.165.037-2.732 1.742-7.737 5.115-.733.495-1.393.752-1.98.733-.66-.018-1.906-.367-2.841-.678-1.155-.367-2.054-.569-1.98-1.21.036-.33.495-.66 1.356-1.008 5.354-2.329 8.91-3.869 10.689-4.602 5.096-2.127 6.141-2.493 6.838-2.493.147 0 .495.036.715.22a.729.729 0 01.257.495c-.019.11.018.44 0 .696z" fill="#fff"/></svg>
